icons/svgs/alarm-clock-solid.svg

<svg width="24" height="24" viewBox="0 0 24 24" fill="none" xmlns="http://www.w3.org/2000/svg">
<path d="M8.25 3.01562L2.54688 7.74219C2.19531 7.15625 2 6.45312 2 5.75C2 3.67969 3.64062 2 5.71094 2C6.6875 2 7.58594 2.39062 8.25 3.01562ZM12 22V22.0391C10.0078 22.0391 8.21094 21.375 6.72656 20.2812L5.35938 21.6484C4.89062 22.1562 4.07031 22.1562 3.60156 21.6484C3.09375 21.1797 3.09375 20.3594 3.60156 19.8906L4.96875 18.5234C3.875 17.0391 3.25 15.2422 3.25 13.25C3.25 8.44531 7.15625 4.5 12 4.5C16.8047 4.5 20.75 8.44531 20.75 13.25C20.75 15.2422 20.0859 17.0391 18.9922 18.5234L20.3594 19.8906C20.8672 20.3594 20.8672 21.1797 20.3594 21.6484C19.8906 22.1562 19.0703 22.1562 18.6016 21.6484L17.2344 20.2812C15.75 21.375 13.9531 22 12 22ZM21.4141 7.74219L15.75 3.01562C16.4141 2.39062 17.2734 2 18.25 2C20.3203 2 22 3.67969 22 5.75C22 6.45312 21.7656 7.15625 21.4141 7.74219ZM12.9375 9.1875C12.9375 8.67969 12.5078 8.25 12 8.25C11.4531 8.25 11.0625 8.67969 11.0625 9.1875V13.25C11.0625 13.5234 11.1406 13.7578 11.3359 13.9141L13.2109 15.7891C13.5625 16.1797 14.1484 16.1797 14.5391 15.7891C14.8906 15.4375 14.8906 14.8516 14.5391 14.5L12.9375 12.8984V9.1875Z" fill="black"/>
</svg>

<svg xmlns="http://www.w3.org/2000/svg" width="24" height="24" fill="currentColor" class="icon-alarm-clock-solid" viewBox="0 0 24 24">
  <mask id="a" width="20" height="21" x="2" y="2" maskUnits="userSpaceOnUse" style="mask-type:alpha">
    <path d="M8.25 3.016 2.547 7.742A3.9 3.9 0 0 1 2 5.75C2 3.68 3.64 2 5.71 2c.978 0 1.876.39 2.54 1.016M12 22v.04c-1.992 0-3.79-.665-5.273-1.759l-1.368 1.367a1.205 1.205 0 0 1-1.757 0 1.205 1.205 0 0 1 0-1.757l1.367-1.368A8.8 8.8 0 0 1 3.25 13.25C3.25 8.445 7.156 4.5 12 4.5c4.805 0 8.75 3.945 8.75 8.75 0 1.992-.664 3.79-1.758 5.273l1.367 1.368a1.203 1.203 0 0 1 0 1.757 1.205 1.205 0 0 1-1.757 0l-1.368-1.367A8.76 8.76 0 0 1 12 22m9.414-14.258L15.75 3.016C16.414 2.39 17.273 2 18.25 2 20.32 2 22 3.68 22 5.75c0 .703-.234 1.406-.586 1.992m-8.477 1.446A.95.95 0 0 0 12 8.25a.925.925 0 0 0-.937.938v4.062c0 .273.078.508.273.664l1.875 1.875c.351.39.937.39 1.328 0a.92.92 0 0 0 0-1.289l-1.601-1.602z"/>
  </mask>
  <g mask="url(#a)">
    <path d="M0 0h24v24H0z"/>
  </g>
</svg>
